X: 15114
T: Ghost Ship
R: reel
M: 4/4
K: Gmajor
|:G2 FG Acde|d2 dG cGdG|A2 ^GA cAdA|e2 eA dAeA|
Beef gfed|c2 cB cdeg|agec d2 fg|1 abaf g2 GA:|2 abaf g2 dB||
|:cea^g a2 ec|dcA^G A2 cA|Bdgf g2 dB|cBGF G2 dB|cea^g a2 ec|
dcA^G A2 cA|1 Bdgf e2 Ac|edB^G AGAB:|2 Bdgf ba|geB^G A4||

